X:80
T:Now or Never
M:2/4
L:1/8
B:Thompson's Compleat Collection of 200 Favourite Country Dances, vol. 3 (London, 1773)
Z:Transcribed and edited by Flynn Titford-Mock, 2007
Z:abc's:AK/Fiddler's Companion
K:D
F/(D/D/)F/ G/(E/E/)G/ | F/(D/D/)f/ "tr"fe | F/(D/D/)F/ G/(E/E/)G/ | F/D/E/[C/c/] [D2d2] :|
|: a/f/d/A/ g/e/c/A/ | f/d/A/f/ "tr"fe | a/f/d/A/ g/e/c/A/ | f/d/A/c/ dD :|

